svgs/light/comments-question.svg

<svg xmlns="http://www.w3.org/2000/svg" viewBox="0 0 640 512"><!--! Font Awesome Pro 6.3.0 by @fontawesome - https://fontawesome.com License - https://fontawesome.com/license (Commercial License) Copyright 2023 Fonticons, Inc. --><path d="M208 224C196.1 224 188 232.1 188 244c0 11.04 8.955 20 20 20s20-8.955 20-20C228 232.1 219 224 208 224zM224.6 80H188.2C163.8 80 144 99.84 144 124.2c0 8.844 7.156 16 16 16s16-7.156 16-16C176 117.5 181.5 112 188.2 112h36.36C233.1 112 240 118.9 240 127.4c0 5.875-3.266 11.16-8.734 13.89L200.6 157.2C195.3 159.1 192 165.4 192 171.4V192c0 8.844 7.156 16 16 16S224 200.8 224 192V181.1l21.78-11.31C261.1 161.8 272 145.5 272 127.4C272 101.3 250.7 80 224.6 80zM416 176C416 78.8 322.9 0 208 0S0 78.8 0 176c0 41.48 17.07 79.54 45.44 109.6c-15.17 32.34-38.65 58.07-38.95 58.38c-6.514 6.836-8.309 16.91-4.568 25.67C5.754 378.4 14.26 384 23.66 384c54.19 0 97.76-20.73 125.9-39.17C168.1 349.4 187.7 352 208 352C322.9 352 416 273.2 416 176zM208 320c-16.96 0-34.04-2.098-50.75-6.232L143.7 310.4L132 318.1c-20.43 13.38-51.58 28.99-89.85 32.97c9.377-12.11 22.3-30.63 32.24-51.82l9.242-19.71L68.72 263.7C44.7 238.2 32 207.9 32 176C32 96.6 110.1 32 208 32S384 96.6 384 176S305 320 208 320zM606.4 435.4C627.6 407.1 640 372.9 640 336C640 238.8 554 160 448 160c-.3145 0-.6191 .041-.9336 .043C447.5 165.3 448 170.6 448 176c0 5.43-.4668 10.76-.9414 16.09C447.4 192.1 447.7 192 448 192c88.22 0 160 64.6 160 144c0 28.69-9.424 56.45-27.25 80.26l-13.08 17.47l11.49 18.55c6.568 10.61 13.18 19.74 18.61 26.74c-18.26-1.91-36.45-6.625-54.3-14.09l-12.69-5.305l-12.58 5.557C495.9 475 472.3 480 448 480c-75.05 0-137.7-46.91-154.9-109.7c-10.1 3.336-20.5 6.132-31.2 8.271C282.7 455.1 357.1 512 448 512c29.82 0 57.94-6.414 83.12-17.54C555 504.5 583.7 512 616.3 512c9.398 0 17.91-5.57 21.73-14.32c3.74-8.758 1.945-18.84-4.568-25.67C633.3 471.8 619.6 456.8 606.4 435.4z"/></svg>

<svg xmlns="http://www.w3.org/2000/svg" viewBox="0 0 640 512"><!-- Font Awesome Pro 6.0.0-alpha2 by @fontawesome - https://fontawesome.com License - https://fontawesome.com/license (Commercial License) --><path d="M208.001 224C196.956 224 188.001 232.953 188.001 244C188.001 255.045 196.956 264 208.001 264S228.001 255.045 228.001 244C228.001 232.953 219.045 224 208.001 224ZM224.594 80H188.235C163.844 80 144.001 99.844 144.001 124.234C144.001 133.078 151.157 140.234 160.001 140.234S176.001 133.078 176.001 124.234C176.001 117.484 181.485 112 188.235 112H224.594C233.094 112 240.001 118.906 240.001 127.406C240.001 133.281 236.735 138.562 231.266 141.297L200.626 157.203C195.329 159.953 192.001 165.438 192.001 171.406V192C192.001 200.844 199.157 208 208.001 208S224.001 200.844 224.001 192V181.125L245.782 169.812C261.954 161.75 272.001 145.5 272.001 127.406C272.001 101.266 250.735 80 224.594 80ZM416.001 176C416.001 78.797 322.876 0 208.001 0S0.001 78.797 0.001 176C0.001 217.482 17.069 255.541 45.444 285.625C30.278 317.961 6.793 343.691 6.497 344.008C-0.017 350.844 -1.812 360.922 1.928 369.68C5.754 378.43 14.262 384 23.661 384C77.85 384 121.42 363.266 149.561 344.83C168.116 349.422 187.692 352 208.001 352C322.876 352 416.001 273.201 416.001 176ZM208.001 320C191.036 320 173.961 317.902 157.249 313.768L143.7 310.414L132.026 318.062C111.596 331.445 80.446 347.051 42.176 351.035C51.553 338.922 64.479 320.4 74.417 299.213L83.659 279.504L68.723 263.668C44.7 238.197 32.001 207.883 32.001 176C32.001 96.598 110.954 32 208.001 32S384.001 96.598 384.001 176S305.047 320 208.001 320ZM606.364 435.439C627.551 407.141 640.001 372.916 640.001 336C640.001 238.797 554.04 160 448.001 160C447.686 160 447.381 160.041 447.067 160.043C447.534 165.328 448.001 170.613 448.001 176C448.001 181.43 447.534 186.76 447.059 192.086C447.381 192.084 447.678 192 448.001 192C536.225 192 608.001 256.598 608.001 336C608.001 364.693 598.577 392.447 580.749 416.26L567.668 433.73L579.157 452.285C585.725 462.893 592.336 472.027 597.77 479.029C579.514 477.119 561.317 472.404 543.467 464.941L530.778 459.637L518.196 465.193C495.95 475.018 472.333 480 448.001 480C372.954 480 310.266 433.086 293.077 370.252C282.973 373.588 272.581 376.383 261.879 378.521C282.659 455.141 357.987 512 448.001 512C477.823 512 505.944 505.586 531.124 494.465C555.028 504.459 583.749 512 616.34 512C625.739 512 634.247 506.43 638.073 497.68C641.813 488.922 640.018 478.844 633.504 472.008C633.278 471.768 619.586 456.795 606.364 435.439Z"/></svg>
